!!! OTL: Berkowitz340
!!! Chapter: 1
!!! Section: III
!!! Page: 83
!!! Mode: 
!!! Encoder: DJB
**kern
*staff1
*I"Piano
=1-
*clefG2
*k[b-]
*F:
*M4/4
4cc\
4a/
8f/L
8a/J
8r
8cc\
=2
8bn\
8r
8dd\L
[8g\J
4g/]
8r
8b-\
=3
8a/L
8b-/
8cc/
[8f/J
8f/L]
8e/J
4f/
=4
2a/
4g/
8r
[8cc\
=5
8cc/L]
[8a/
8a/]
[8f/J
8f/L]
8cc/
8dd/
8cc/J
=6
8bn\L
8cc\
8dd\
[8cc\J
8cc\]
4g/
8a/
=7
!!linebreak:original
8b-/L
8a/
8g/
[8a/J
8a/L]
8g/J
4f/
=8
4g/
4cc\
2f/
==
*-
